**kern	**silbe	**kern	**silbe	**harmony	**phrase	**leadinstrument	**rhyme	**timestamp	**harte
*ICvox	*	*ICvox	*	*M4/4	*	*	*	*	*M4/4
*VRlead	*	*VRharmonize*VRresponse	*	*	*	*	*	*	*
*Hstimme	*	*Nstimme	*	*	*	*	*	*	*
*G-:	*	*G-:	*	*G-:	*	*	*	*	*G-:
*M4/4	*	*M4/4	*	*	*	*	*	*	*
*clefC3	*	*clefG2	*	*	*	*	*	*	*
r;	.	r;	.	1r;	.	r	.	0	N.C.
=1	=1	=1	=1	=1	=1	=1	=1	=1	=1
*>Letter>A	*>Letter>A	*>Letter>A	*>Letter>A	*>Letter>A	*>Letter>A	*>Letter>A	*>Letter>A	*>Letter>A	*>Letter>A
*>Label>Intro	*>Label>Intro	*>Label>Intro	*>Label>Intro	*>Label>Intro	*>Label>Intro	*>Label>Intro	*>Label>Intro	*>Label>Intro	*>Label>Intro
1r	.	1r	.	1C-M	newline	synthesizer	.	0.441	C-:maj
=2	=2	=2	=2	=2	=2	=2	=2	=2	=2
1r	.	1r	.	1G-M	.	synthesizer	.	2.87	G-:maj
=3	=3	=3	=3	=3	=3	=3	=3	=3	=3
1r	.	1r	.	1C-M	.	synthesizer	.	5.299	C-:maj
=4	=4	=4	=4	=4	=4	=4	=4	=4	=4
1r	.	1r	.	1G-M	.	synthesizer	.	7.728	G-:maj
=5	=5	=5	=5	=5	=5	=5	=5	=5	=5
1r	.	1r	.	1D-mm	newline	synthesizer	.	10.157	D-:min11/b3
=6	=6	=6	=6	=6	=6	=6	=6	=6	=6
1r	.	1r	.	1G-M	.	synthesizer	.	12.598	G-:maj
=7	=7	=7	=7	=7	=7	=7	=7	=7	=7
1r	.	1r	.	1D-M	.	synthesizer	.	15.039	D-:maj
=8	=8	=8	=8	=8	=8	=8	=8	=8	=8
1r	.	1r	.	1D-M	.	synthesizer	.	17.48	D-:maj
=9	=9	=9	=9	=9	=9	=9	=9	=9	=9
*>Letter>A	*>Letter>A	*>Letter>A	*>Letter>A	*>Letter>A	*>Letter>A	*>Letter>A	*>Letter>A	*>Letter>A	*>Letter>A
*>Label>Verse	*>Label>Verse	*>Label>Verse	*>Label>Verse	*>Label>Verse	*>Label>Verse	*>Label>Verse	*>Label>Verse	*>Label>Verse	*>Label>Verse
2r	.	1r	.	1C-M	newline	voice	.	19.921	C-:maj
8A-	Out	.	.	.	.	.	.	.	.
8c-	from	.	.	.	.	.	.	.	.
8e-	the	.	.	.	.	.	.	.	.
[8d-	ru	.	.	.	.	.	.	.	.
=10	=10	=10	=10	=10	=10	=10	=10	=10	=10
8d-]	_	1r	.	1G-M	.	voice	.	22.343	G-:maj
8e-	ins,	.	.	.	.	.	.	.	.
4r	.	.	.	.	.	.	.	.	.
2r	.	.	.	.	.	.	.	.	.
=11	=11	=11	=11	=11	=11	=11	=11	=11	=11
2r	.	1r	.	1C-M	.	voice	.	24.765	C-:maj
8A-	out	.	.	.	.	.	.	.	.
8c-	from	.	.	.	.	.	.	.	.
8e-	the	.	.	.	.	.	.	.	.
[8d-	wreck	.	.	.	.	.	.	.	.
=12	=12	=12	=12	=12	=12	=12	=12	=12	=12
8d-]	_	1r	.	1G-M	.	voice	.	27.187	G-:maj
16~A-	age,	.	.	.	.	.	.	.	.
[16~G-	_	.	.	.	.	.	.	.	.
8G-]	_	.	.	.	.	.	.	.	.
8r	.	.	.	.	.	.	.	.	.
2r	.	.	.	.	.	.	.	.	.
=13	=13	=13	=13	=13	=13	=13	=13	=13	=13
2r	.	1r	.	1D-mm	newline	voice	.	29.61	D-:min11/b3
8A-	can't	.	.	.	.	.	.	.	.
8c-	make	.	.	.	.	.	.	.	.
8e-	the	.	.	.	.	.	.	.	.
[8d-	same	.	.	.	.	.	.	.	.
=14	=14	=14	=14	=14	=14	=14	=14	=14	=14
4d-]	_	1r	.	1G-M	.	voice	.	32.038	G-:maj
8c-	mis-	.	.	.	.	.	.	.	.
[8B-	-takes	.	.	.	.	.	.	.	.
4B-]	_	.	.	.	.	.	.	.	.
8G-	this	.	.	.	.	.	.	.	.
[8A-	time	.	.	.	.	.	A	.	.
=15	=15	=15	=15	=15	=15	=15	=15	=15	=15
1A-]	_	1r	.	1D-M	.	voice	.	34.466	D-:maj
=16	=16	=16	=16	=16	=16	=16	=16	=16	=16
1r	.	1r	.	1D-M	.	voice	.	36.894	D-:maj
=17	=17	=17	=17	=17	=17	=17	=17	=17	=17
2r	.	1r	.	1C-M	newline	voice	.	39.323	C-:maj
8A-	We	.	.	.	.	.	.	.	.
8c-	are	.	.	.	.	.	.	.	.
8e-	the	.	.	.	.	.	.	.	.
[8d-	chil	.	.	.	.	.	.	.	.
=18	=18	=18	=18	=18	=18	=18	=18	=18	=18
8d-]	_	1r	.	1G-M	.	voice	.	41.756	G-:maj
8e-	dren,	.	.	.	.	.	.	.	.
4r	.	.	.	.	.	.	.	.	.
2r	.	.	.	.	.	.	.	.	.
=19	=19	=19	=19	=19	=19	=19	=19	=19	=19
4r	.	1r	.	1C-M	.	voice	.	44.189	C-:maj
8r	.	.	.	.	.	.	.	.	.
8D-	the	.	.	.	.	.	.	.	.
8A-	last	.	.	.	.	.	.	.	.
8B-	ge-	.	.	.	.	.	.	.	.
8c-	-ner-	.	.	.	.	.	.	.	.
8Aq	_	.	.	.	.	.	.	.	.
8B-	-a	.	.	.	.	.	.	.	.
=20	=20	=20	=20	=20	=20	=20	=20	=20	=20
8A-	_	1r	.	1G-M	.	voice	.	46.623	G-:maj
8G-	tion,	.	.	.	.	.	.	.	.
4r	.	.	.	.	.	.	.	.	.
4f	(last	.	.	.	.	.	.	.	.
8r	.	.	.	.	.	.	.	.	.
16f	ge-	.	.	.	.	.	.	.	.
16f	-ner-	.	.	.	.	.	.	.	.
=21	=21	=21	=21	=21	=21	=21	=21	=21	=21
8f	-a-	1r	.	1D-mm	newline	voice	.	49.056	D-:min11/b3
8f	-tion)	.	.	.	.	.	.	.	.
4r	.	.	.	.	.	.	.	.	.
8A-	we	.	.	.	.	.	.	.	.
8c-	are	.	.	.	.	.	.	.	.
8e-	the	.	.	.	.	.	.	.	.
[8d-	ones	.	.	.	.	.	.	.	.
=22	=22	=22	=22	=22	=22	=22	=22	=22	=22
4d-]	_	1r	.	1G-M	.	voice	.	51.482	G-:maj
8c-	they	.	.	.	.	.	.	.	.
[8B-	left	.	.	.	.	.	.	.	.
4B-]	_	.	.	.	.	.	.	.	.
8G-	be-	.	.	.	.	.	.	.	.
[8A-	-hind	.	.	.	.	.	A	.	.
=23	=23	=23	=23	=23	=23	=23	=23	=23	=23
2.A-]	_	1r	.	1D-M	.	voice	.	53.907	D-:maj
4r	.	.	.	.	.	.	.	.	.
=24	=24	=24	=24	=24	=24	=24	=24	=24	=24
2r	.	1r	.	1D-M	.	voice	.	56.333	D-:maj
4r	.	.	.	.	.	.	.	.	.
8A-	And	.	.	.	.	.	.	.	.
8B-	I	.	.	.	.	.	.	.	.
=25	=25	=25	=25	=25	=25	=25	=25	=25	=25
*>Letter>B	*>Letter>B	*>Letter>B	*>Letter>B	*>Letter>B	*>Letter>B	*>Letter>B	*>Letter>B	*>Letter>B	*>Letter>B
*>Label>Prechorus	*>Label>Prechorus	*>Label>Prechorus	*>Label>Prechorus	*>Label>Prechorus	*>Label>Prechorus	*>Label>Prechorus	*>Label>Prechorus	*>Label>Prechorus	*>Label>Prechorus
8c-	won	1r	.	1F-M	newline	voice	.	58.759	F-:maj
8A-	_	.	.	.	.	.	.	.	.
8A-	der	.	.	.	.	.	.	.	.
8G-	when	.	.	.	.	.	.	.	.
16A-	we	.	.	.	.	.	.	.	.
16G-	_	.	.	.	.	.	.	.	.
8F-	_	.	.	.	.	.	.	.	.
8r	.	.	.	.	.	.	.	.	.
8c-	are	.	.	.	.	.	.	.	.
=26	=26	=26	=26	=26	=26	=26	=26	=26	=26
*M2/4	*	*M2/4	*	*M2/4	*M2/4	*M2/4	*	*M2/4	*M2/4
8B-	e-	2r	.	2G-M	.	voice	.	61.191	G-:maj
8A-	-ver	.	.	.	.	.	.	.	.
8G-	gon-	.	.	.	.	.	.	.	.
8A-	-na	.	.	.	.	.	.	.	.
=27	=27	=27	=27	=27	=27	=27	=27	=27	=27
*M4/4	*	*M4/4	*	*M4/4	*M4/4	*M4/4	*	*M4/4	*M4/4
4.E-	change,	1r	.	1D-mm	.	voice	B	62.407	D-:min9
16E-	change	.	.	.	.	.	B	.	.
16D-	_	.	.	.	.	.	.	.	.
16C-	_	.	.	.	.	.	.	.	.
8.AA-	_	.	.	.	.	.	.	.	.
4r	.	.	.	.	.	.	.	.	.
=28	=28	=28	=28	=28	=28	=28	=28	=28	=28
2r	.	1r	.	1D-mm	.	voice	.	64.84	D-:min9
4r	.	.	.	.	.	.	.	.	.
8A-	Li-	.	.	.	.	.	.	.	.
8B-	-ving	.	.	.	.	.	.	.	.
=29	=29	=29	=29	=29	=29	=29	=29	=29	=29
8c-	un	1r	.	1F-M	newline	voice	.	67.272	F-:maj
8A-	_	.	.	.	.	.	.	.	.
8A-	der	.	.	.	.	.	.	.	.
8G-	the	.	.	.	.	.	.	.	.
16A-	fear,	.	.	.	.	.	.	.	.
16G-	_	.	.	.	.	.	.	.	.
8F-	_	.	.	.	.	.	.	.	.
8r	.	.	.	.	.	.	.	.	.
8c-	'till	.	.	.	.	.	.	.	.
=30	=30	=30	=30	=30	=30	=30	=30	=30	=30
*M2/4	*	*M2/4	*	*M2/4	*M2/4	*M2/4	*	*M2/4	*M2/4
8B-	no-	2r	.	2G-M	.	voice	.	69.703	G-:maj
8A-	-thing	.	.	.	.	.	.	.	.
8G-	else	.	.	.	.	.	.	.	.
8A-	re-	.	.	.	.	.	.	.	.
=31	=31	=31	=31	=31	=31	=31	=31	=31	=31
*M4/4	*	*M4/4	*	*M4/4	*M4/4	*M4/4	*	*M4/4	*M4/4
1A-	-mains.	1r	.	1D-mm	.	voice	B	70.918	D-:min9
=32	=32	=32	=32	=32	=32	=32	=32	=32	=32
4r	.	1r	.	2G-M	.	voice	.	73.348	G-:maj
8b-	We	.	.	.	.	.	.	.	.
8b-	don't	.	.	.	.	.	.	.	.
8cc-	need	.	.	4F-M	.	voice	.	74.564	F-:maj/3
8cc-	a-	.	.	.	.	.	.	.	.
8b-	-no-	.	.	4G-M	.	voice	.	75.171	G-:maj
8b-	-ther	.	.	.	.	.	.	.	.
=33	=33	=33	=33	=33	=33	=33	=33	=33	=33
*>Letter>C	*>Letter>C	*>Letter>C	*>Letter>C	*>Letter>C	*>Letter>C	*>Letter>C	*>Letter>C	*>Letter>C	*>Letter>C
*>Label>Chorus	*>Label>Chorus	*>Label>Chorus	*>Label>Chorus	*>Label>Chorus	*>Label>Chorus	*>Label>Chorus	*>Label>Chorus	*>Label>Chorus	*>Label>Chorus
4.a-	he	1r	.	2F-M	newline	voice	.	75.779	F-:maj
8g-	ro!	.	.	.	.	.	C	.	.
2r	.	.	.	2G-M	.	voice	.	76.991	G-:maj
=34	=34	=34	=34	=34	=34	=34	=34	=34	=34
4r	.	1r	.	2G-M	.	voice	.	78.203	G-:maj
8b-	We	.	.	.	.	.	.	.	.
8b-	don't	.	.	.	.	.	.	.	.
8cc-	need	.	.	4F-M	.	voice	.	79.415	F-:maj/3
8cc-	to	.	.	.	.	.	.	.	.
8b-	know	.	.	4G-M	.	voice	.	80.02	G-:maj
8b-	the	.	.	.	.	.	.	.	.
=35	=35	=35	=35	=35	=35	=35	=35	=35	=35
4.cc-	way	1r	.	2F-M	.	voice	.	80.626	F-:maj
8b-	home!	.	.	.	.	.	C	.	.
16a-	_	.	.	2G-M	.	voice	.	81.838	G-:maj
8.g-	_	.	.	.	.	.	.	.	.
4r	.	.	.	.	.	.	.	.	.
=36	=36	=36	=36	=36	=36	=36	=36	=36	=36
4r	.	1r	.	2G-M	.	voice	.	83.05	G-:maj/6
8b-	All	.	.	.	.	.	.	.	.
8b-	we	.	.	.	.	.	.	.	.
8cc-	want	.	.	4C-M	.	voice	.	84.262	C-:maj/3
8cc-	is	.	.	.	.	.	.	.	.
8b-	life	.	.	4G-M	.	voice	.	84.868	G-:maj/6
8b-	be-	.	.	.	.	.	.	.	.
=37	=37	=37	=37	=37	=37	=37	=37	=37	=37
4.a-	-yond	1r	.	2F-M	newline	voice	.	85.474	F-:maj
[8g-	_	.	.	.	.	.	.	.	.
8g-]	_	.	.	2G-M	.	voice	.	86.684	G-:maj
8g-	the	.	.	.	.	.	.	.	.
8d-	Thun-	.	.	.	.	.	.	.	.
8e-	-der-	.	.	.	.	.	.	.	.
=38	=38	=38	=38	=38	=38	=38	=38	=38	=38
4f-	-dome.	1r	.	1D-m	.	voice	C	87.894	D-:min
4r	.	.	.	.	.	.	.	.	.
2r	.	.	.	.	.	.	.	.	.
=39	=39	=39	=39	=39	=39	=39	=39	=39	=39
1r	.	1r	.	1D-m	.	voice	.	90.315	D-:min
=40	=40	=40	=40	=40	=40	=40	=40	=40	=40
*>Letter>A	*>Letter>A	*>Letter>A	*>Letter>A	*>Letter>A	*>Letter>A	*>Letter>A	*>Letter>A	*>Letter>A	*>Letter>A
*>Label>Verse	*>Label>Verse	*>Label>Verse	*>Label>Verse	*>Label>Verse	*>Label>Verse	*>Label>Verse	*>Label>Verse	*>Label>Verse	*>Label>Verse
2r	.	1r	.	1C-M	newline	voice	.	92.735	C-:maj
8A-	Loo-	.	.	.	.	.	.	.	.
8c-	-king	.	.	.	.	.	.	.	.
8e-	for	.	.	.	.	.	.	.	.
[8d-	some	.	.	.	.	.	.	.	.
=41	=41	=41	=41	=41	=41	=41	=41	=41	=41
8d-]	_	1r	.	1G-M	.	voice	.	95.165	G-:maj
8e-	thing,	.	.	.	.	.	.	.	.
4r	.	.	.	.	.	.	.	.	.
2r	.	.	.	.	.	.	.	.	.
=42	=42	=42	=42	=42	=42	=42	=42	=42	=42
2r	.	1r	.	1C-M	.	voice	.	97.595	C-:maj
8A-	we	.	.	.	.	.	.	.	.
8c-	can	.	.	.	.	.	.	.	.
8e-	re-	.	.	.	.	.	.	.	.
[8d-	-ly	.	.	.	.	.	.	.	.
=43	=43	=43	=43	=43	=43	=43	=43	=43	=43
8d-]	_	1r	.	1G-M	.	voice	.	100.025	G-:maj
16A-	on,	.	.	.	.	.	D	.	.
[16G-	_	.	.	.	.	.	.	.	.
8G-]	_	.	.	.	.	.	.	.	.
8r	.	.	.	.	.	.	.	.	.
2r	.	.	.	.	.	.	.	.	.
=44	=44	=44	=44	=44	=44	=44	=44	=44	=44
4r	.	1r	.	1D-mm	newline	voice	.	102.454	D-:min11/b3
8r	.	.	.	.	.	.	.	.	.
8D-	There's	.	.	.	.	.	.	.	.
8A-	got	.	.	.	.	.	.	.	.
8c-	to	.	.	.	.	.	.	.	.
8e-	be	.	.	.	.	.	.	.	.
[8d-	some	.	.	.	.	.	.	.	.
=45	=45	=45	=45	=45	=45	=45	=45	=45	=45
4d-]	_	1r	.	1G-M	.	voice	.	104.887	G-:maj
8c-	thing	.	.	.	.	.	.	.	.
[8B-	bet	.	.	.	.	.	.	.	.
8B-]	_	.	.	.	.	.	.	.	.
8A-	ter	.	.	.	.	.	.	.	.
8G-	out	.	.	.	.	.	.	.	.
[8A-	there	.	.	.	.	.	E	.	.
=46	=46	=46	=46	=46	=46	=46	=46	=46	=46
1A-]	_	1r	.	1D-M	.	voice	.	107.32	D-:maj
=47	=47	=47	=47	=47	=47	=47	=47	=47	=47
2r	.	1r	.	1D-M	.	voice	.	109.753	D-:maj
8r	.	.	.	.	.	.	.	.	.
4g-	Mmm,	.	.	.	.	.	.	.	.
[8a-	_	.	.	.	.	.	.	.	.
=48	=48	=48	=48	=48	=48	=48	=48	=48	=48
2a-]	_	1r	.	1C-M	newline	voice	.	112.186	C-:maj
8a-	love	.	.	.	.	.	.	.	.
8g-	and	.	.	.	.	.	.	.	.
8e-	com-	.	.	.	.	.	.	.	.
8g-	-pas-	.	.	.	.	.	.	.	.
=49	=49	=49	=49	=49	=49	=49	=49	=49	=49
16d-	-sion,	1r	.	1G-M	.	voice	D	114.611	G-:maj
8.e-	_	.	.	.	.	.	.	.	.
4r	.	.	.	.	.	.	.	.	.
2r	.	.	.	.	.	.	.	.	.
=50	=50	=50	=50	=50	=50	=50	=50	=50	=50
2r	.	1r	.	1C-M	.	voice	.	117.035	C-:maj
8A-	their	.	.	.	.	.	.	.	.
8B-	day	.	.	.	.	.	.	.	.
8c-	is	.	.	.	.	.	.	.	.
8Aq	_	.	.	.	.	.	.	.	.
8B-	Co	.	.	.	.	.	.	.	.
=51	=51	=51	=51	=51	=51	=51	=51	=51	=51
8A-	_	1r	.	1G-M	.	voice	.	119.46	G-:maj
8G-	ming,	.	.	.	.	.	.	.	.
8r	.	.	.	.	.	.	.	.	.
8b-	(co	.	.	.	.	.	.	.	.
8a-	_	.	.	.	.	.	.	.	.
[8g-	ming	.	.	.	.	.	.	.	.
4g-]	)	.	.	.	.	.	.	.	.
=52	=52	=52	=52	=52	=52	=52	=52	=52	=52
2r	.	1r	.	1D-mm	newline	voice	.	121.885	D-:min11/b3
8A-	all	.	.	.	.	.	.	.	.
8c-	else	.	.	.	.	.	.	.	.
8e-	are	.	.	.	.	.	.	.	.
[8d-	cast	.	.	.	.	.	.	.	.
=53	=53	=53	=53	=53	=53	=53	=53	=53	=53
4d-]	_	1r	.	1G-M	.	voice	.	124.314	G-:maj
8c-	les	.	.	.	.	.	.	.	.
[8B-	built	.	.	.	.	.	.	.	.
8B-]	_	.	.	.	.	.	.	.	.
8A-	in	.	.	.	.	.	.	.	.
8G-	the	.	.	.	.	.	.	.	.
[8A-	air	.	.	.	.	.	E	.	.
=54	=54	=54	=54	=54	=54	=54	=54	=54	=54
1A-]	_	1r	.	1D-M	.	voice	.	126.743	D-:maj
=55	=55	=55	=55	=55	=55	=55	=55	=55	=55
2r	.	1r	.	1D-M	.	voice	.	129.173	D-:maj
4r	.	.	.	.	.	.	.	.	.
8a-	And	.	.	.	.	.	.	.	.
8b-	I	.	.	.	.	.	.	.	.
=56	=56	=56	=56	=56	=56	=56	=56	=56	=56
*>Letter>B	*>Letter>B	*>Letter>B	*>Letter>B	*>Letter>B	*>Letter>B	*>Letter>B	*>Letter>B	*>Letter>B	*>Letter>B
*>Label>Prechorus	*>Label>Prechorus	*>Label>Prechorus	*>Label>Prechorus	*>Label>Prechorus	*>Label>Prechorus	*>Label>Prechorus	*>Label>Prechorus	*>Label>Prechorus	*>Label>Prechorus
8cc-	won	1r	.	1F-M	newline	voice	.	131.602	F-:maj
8a-	_	.	.	.	.	.	.	.	.
8a-	der	.	.	.	.	.	.	.	.
8g-	when	.	.	.	.	.	.	.	.
16a-	we	.	.	.	.	.	.	.	.
16g-	_	.	.	.	.	.	.	.	.
8f-	_	.	.	.	.	.	.	.	.
8r	.	.	.	.	.	.	.	.	.
8cc-	are	.	.	.	.	.	.	.	.
=57	=57	=57	=57	=57	=57	=57	=57	=57	=57
*M2/4	*	*M2/4	*	*M2/4	*M2/4	*M2/4	*	*M2/4	*M2/4
8b-	e-	2r	.	2G-M	.	voice	.	134.016	G-:maj
8a-	-ver	.	.	.	.	.	.	.	.
8g-	gon-	.	.	.	.	.	.	.	.
8a-	-na	.	.	.	.	.	.	.	.
=58	=58	=58	=58	=58	=58	=58	=58	=58	=58
*M4/4	*	*M4/4	*	*M4/4	*M4/4	*M4/4	*	*M4/4	*M4/4
4.e-	change,	1r	.	1D-mm	.	voice	B	135.223	D-:min9
16e-	change	.	.	.	.	.	B	.	.
16d-	_	.	.	.	.	.	.	.	.
16c-	_	.	.	.	.	.	.	.	.
8.A-	_	.	.	.	.	.	.	.	.
4r	.	.	.	.	.	.	.	.	.
=59	=59	=59	=59	=59	=59	=59	=59	=59	=59
2r	.	1r	.	1D-mm	.	voice	.	137.637	D-:min9
4r	.	.	.	.	.	.	.	.	.
8a-	Li-	.	.	.	.	.	.	.	.
8b-	-ving	.	.	.	.	.	.	.	.
=60	=60	=60	=60	=60	=60	=60	=60	=60	=60
8cc-	un	1r	.	1F-M	newline	voice	.	140.051	F-:maj
8a-	_	.	.	.	.	.	.	.	.
8a-	der	.	.	.	.	.	.	.	.
8g-	the	.	.	.	.	.	.	.	.
16a-	fear,	.	.	.	.	.	.	.	.
16g-	_	.	.	.	.	.	.	.	.
8f-	_	.	.	.	.	.	.	.	.
8r	.	.	.	.	.	.	.	.	.
8cc-	'till	.	.	.	.	.	.	.	.
=61	=61	=61	=61	=61	=61	=61	=61	=61	=61
*M2/4	*	*M2/4	*	*M2/4	*M2/4	*M2/4	*	*M2/4	*M2/4
8b-	no-	2r	.	2G-M	.	voice	.	142.488	G-:maj
8a-	-thing	.	.	.	.	.	.	.	.
8g-	else	.	.	.	.	.	.	.	.
8a-	re-	.	.	.	.	.	.	.	.
=62	=62	=62	=62	=62	=62	=62	=62	=62	=62
*M4/4	*	*M4/4	*	*M4/4	*M4/4	*M4/4	*	*M4/4	*M4/4
1a-	-mains.	1r	.	1D-mm	.	voice	B	143.706	D-:min9
=63	=63	=63	=63	=63	=63	=63	=63	=63	=63
2r	.	1r	.	1D-mm	.	voice	.	146.142	D-:min9
8cc-	All	.	.	.	.	.	.	.	.
8cc-	the	.	.	.	.	.	.	.	.
8cc-	chil-	.	.	.	.	.	.	.	.
8cc-	-dren	.	.	.	.	.	.	.	.
=64	=64	=64	=64	=64	=64	=64	=64	=64	=64
4b-	say,	1r	.	2G-M	.	voice	.	148.579	G-:maj
8b-	we	.	.	.	.	.	.	.	.
8b-	don't	.	.	.	.	.	.	.	.
8cc-	need	.	.	4F-M	.	voice	.	149.797	F-:maj/3
8cc-	a-	.	.	.	.	.	.	.	.
8b-	-no-	.	.	4G-M	.	voice	.	150.406	G-:maj
8b-	-ther	.	.	.	.	.	.	.	.
=65	=65	=65	=65	=65	=65	=65	=65	=65	=65
*>Letter>C	*>Letter>C	*>Letter>C	*>Letter>C	*>Letter>C	*>Letter>C	*>Letter>C	*>Letter>C	*>Letter>C	*>Letter>C
*>Label>Chorus	*>Label>Chorus	*>Label>Chorus	*>Label>Chorus	*>Label>Chorus	*>Label>Chorus	*>Label>Chorus	*>Label>Chorus	*>Label>Chorus	*>Label>Chorus
4.a-	he-	1r	.	2F-M	newline	voice	.	151.015	F-:maj
8g-	-ro!	.	.	.	.	.	C	.	.
2r	.	.	.	2G-M	.	voice	.	152.234	G-:maj
=66	=66	=66	=66	=66	=66	=66	=66	=66	=66
4r	.	1r	.	2G-M	.	voice	.	153.453	G-:maj
8b-	We	.	.	.	.	.	.	.	.
8b-	don't	.	.	.	.	.	.	.	.
8cc-	need	.	.	4F-M	.	voice	.	154.672	F-:maj/3
8cc-	to	.	.	.	.	.	.	.	.
8b-	know	.	.	4G-M	.	voice	.	155.282	G-:maj
8b-	the	.	.	.	.	.	.	.	.
=67	=67	=67	=67	=67	=67	=67	=67	=67	=67
4.cc-	way	1r	.	2F-M	.	voice	.	155.891	F-:maj
8b-	home!	.	.	.	.	.	C	.	.
16a-	_	.	.	2G-M	.	voice	.	157.11	G-:maj
8.g-	_	.	.	.	.	.	.	.	.
4r	.	.	.	.	.	.	.	.	.
=68	=68	=68	=68	=68	=68	=68	=68	=68	=68
4r	.	1r	.	2G-M	.	voice	.	158.329	G-:maj/6
8b-	All	.	.	.	.	.	.	.	.
8b-	we	.	.	.	.	.	.	.	.
8cc-	want	.	.	4C-M	.	voice	.	159.548	C-:maj/3
8cc-	is	.	.	.	.	.	.	.	.
8b-	life	.	.	4G-M	.	voice	.	160.158	G-:maj/6
8b-	be-	.	.	.	.	.	.	.	.
=69	=69	=69	=69	=69	=69	=69	=69	=69	=69
4.a-	-yond	1r	.	2F-M	newline	voice	.	160.767	F-:maj
[8g-	_	.	.	.	.	.	.	.	.
8g-]	_	.	.	2G-M	.	voice	.	161.962	G-:maj
8g-	the	.	.	.	.	.	.	.	.
8d-	Thun-	.	.	.	.	.	.	.	.
8e-	-der-	.	.	.	.	.	.	.	.
=70	=70	=70	=70	=70	=70	=70	=70	=70	=70
4f-	-dome.	1r	.	2D-m	.	voice	C	163.156	D-:min
4r	.	.	.	.	.	.	.	.	.
2r	.	.	.	2C-M	.	voice	.	164.35	C-:maj
=71	=71	=71	=71	=71	=71	=71	=71	=71	=71
*>Letter>D	*>Letter>D	*>Letter>D	*>Letter>D	*>Letter>D	*>Letter>D	*>Letter>D	*>Letter>D	*>Letter>D	*>Letter>D
*>Label>Bridge	*>Label>Bridge	*>Label>Bridge	*>Label>Bridge	*>Label>Bridge	*>Label>Bridge	*>Label>Bridge	*>Label>Bridge	*>Label>Bridge	*>Label>Bridge
4r	.	1r	.	1B--M	newline	voice	.	165.545	B--:maj
8r	.	.	.	.	.	.	.	.	.
8dd-	So	.	.	.	.	.	.	.	.
8.dd-	what	.	.	.	.	.	.	.	.
[16cc-	do	.	.	.	.	.	.	.	.
16cc-]	_	.	.	.	.	.	.	.	.
16a-	we	.	.	.	.	.	.	.	.
[8dd-	do	.	.	.	.	.	.	.	.
=72	=72	=72	=72	=72	=72	=72	=72	=72	=72
12dd-]	_	1r	.	1G-M	.	voice	.	167.984	G-:maj
12dd-	with	.	.	.	.	.	.	.	.
12dd-	our	.	.	.	.	.	.	.	.
8.dd-	lives?	.	.	.	.	.	A	.	.
16cc-	_	.	.	.	.	.	.	.	.
4b-	_	.	.	.	.	.	.	.	.
4r	.	.	.	.	.	.	.	.	.
=73	=73	=73	=73	=73	=73	=73	=73	=73	=73
4r	.	1r	.	1B--M	.	voice	.	170.424	B--:maj
16r	.	.	.	.	.	.	.	.	.
16dd-	We	.	.	.	.	.	.	.	.
8dd-	leave	.	.	.	.	.	.	.	.
8.dd-	on-	.	.	.	.	.	.	.	.
16cc-	-ly	.	.	.	.	.	.	.	.
8r	.	.	.	.	.	.	.	.	.
16a	a	.	.	.	.	.	.	.	.
16a	mark!	.	.	.	.	.	F	.	.
=74	=74	=74	=74	=74	=74	=74	=74	=74	=74
[4a-	_	1r	.	1D-m	.	voice	.	172.863	D-:min
16a-]	_	.	.	.	.	.	.	.	.
16g-	_	.	.	.	.	.	.	.	.
8f-	_	.	.	.	.	.	.	.	.
2r	.	.	.	.	.	.	.	.	.
=75	=75	=75	=75	=75	=75	=75	=75	=75	=75
6r	.	1r	.	1E--M	newline	voice	.	175.302	E--:maj
6r	.	.	.	.	.	.	.	.	.
6a	Will	.	.	.	.	.	.	.	.
6a	our	.	.	.	.	.	.	.	.
6a	sto-	.	.	.	.	.	.	.	.
6cc-	-ry	.	.	.	.	.	.	.	.
=76	=76	=76	=76	=76	=76	=76	=76	=76	=76
4cc-	shine	1r	.	1F-M	.	voice	.	177.724	F-:maj/7
12a-	_	.	.	.	.	.	.	.	.
6a-	like	.	.	.	.	.	.	.	.
12g-	a	.	.	.	.	.	.	.	.
12a-	light?	.	.	.	.	.	A	.	.
12g-	_	.	.	.	.	.	.	.	.
4f-	_	.	.	.	.	.	.	.	.
=77	=77	=77	=77	=77	=77	=77	=77	=77	=77
6r	.	1r	.	1E--M	.	voice	.	180.145	E--:maj
6r	.	.	.	.	.	.	.	.	.
6a	Or	.	.	.	.	.	.	.	.
6a	end	.	.	.	.	.	.	.	.
6a	in	.	.	.	.	.	.	.	.
6cc-	the	.	.	.	.	.	.	.	.
=78	=78	=78	=78	=78	=78	=78	=78	=78	=78
4cc-	dark?	1r	.	1F-Mm	.	voice	F	182.566	F-:7
8r	.	.	.	.	.	.	.	.	.
16dd-	Is	.	.	.	.	.	.	.	.
16dd-	it	.	.	.	.	.	.	.	.
8dd-	all	.	.	.	.	.	.	.	.
8dd-	or	.	.	.	.	.	.	.	.
8dd-	no-	.	.	.	.	.	.	.	.
8dd-	-thing?	.	.	.	.	.	.	.	.
=79	=79	=79	=79	=79	=79	=79	=79	=79	=79
16cc-	_	1r	.	1F-Mm	.	voice	.	184.987	F-:7
8.b-	_	.	.	.	.	.	.	.	.
8b-	Doo-	.	.	.	.	.	.	.	.
8b-	-doo-	.	.	.	.	.	.	.	.
8cc-	-doo-	.	.	.	.	.	.	.	.
8cc-	-doo-	.	.	.	.	.	.	.	.
8b-	-doo-	.	.	.	.	.	.	.	.
8b-	-doo-	.	.	.	.	.	.	.	.
=80	=80	=80	=80	=80	=80	=80	=80	=80	=80
*>Letter>C	*>Letter>C	*>Letter>C	*>Letter>C	*>Letter>C	*>Letter>C	*>Letter>C	*>Letter>C	*>Letter>C	*>Letter>C
*>Label>Solo	*>Label>Solo	*>Label>Solo	*>Label>Solo	*>Label>Solo	*>Label>Solo	*>Label>Solo	*>Label>Solo	*>Label>Solo	*>Label>Solo
4.a-	-doo-	1r	.	2F-M	newline	saxophone	.	187.408	F-:maj
8g-	-doo...	.	.	.	.	.	.	.	.
2r	.	.	.	2G-M	.	saxophone	.	188.626	G-:maj
=81	=81	=81	=81	=81	=81	=81	=81	=81	=81
1r	.	1r	.	2G-M	.	saxophone	.	189.845	G-:maj
.	.	.	.	4F-M	.	saxophone	.	191.063	F-:maj/3
.	.	.	.	4G-M	.	saxophone	.	191.672	G-:maj
=82	=82	=82	=82	=82	=82	=82	=82	=82	=82
1r	.	1r	.	2F-M	.	saxophone	.	192.281	F-:maj
.	.	.	.	2G-M	.	saxophone	.	193.499	G-:maj
=83	=83	=83	=83	=83	=83	=83	=83	=83	=83
1r	.	1r	.	4G-M	.	saxophone	.	194.717	G-:maj
.	.	.	.	4G-M	.	saxophone	.	195.326	G-:maj/6
.	.	.	.	4C-M	.	saxophone	.	195.935	C-:maj/3
.	.	.	.	4G-M	.	saxophone	.	196.544	G-:maj/6
=84	=84	=84	=84	=84	=84	=84	=84	=84	=84
1r	.	1r	.	2F-M	newline	saxophone	.	197.153	F-:maj
.	.	.	.	2G-M	.	saxophone	.	198.364	G-:maj
=85	=85	=85	=85	=85	=85	=85	=85	=85	=85
1r	.	1r	.	2G-M	.	saxophone	.	199.575	G-:maj
.	.	.	.	4F-M	.	saxophone	.	200.786	F-:maj/3
.	.	.	.	4G-M	.	saxophone	.	201.391	G-:maj
=86	=86	=86	=86	=86	=86	=86	=86	=86	=86
1r	.	1r	.	2F-M	.	saxophone	.	201.997	F-:maj
.	.	.	.	2G-M	.	saxophone	.	203.208	G-:maj
=87	=87	=87	=87	=87	=87	=87	=87	=87	=87
4r	.	1r	.	2G-M	.	saxophone	.	204.418	G-:maj
8b-	We	.	.	.	.	.	.	.	.
8b-	don't	.	.	.	.	.	.	.	.
8cc-	need	.	.	4F-M	.	saxophone	.	205.629	F-:maj/3
8cc-	a-	.	.	.	.	.	.	.	.
8b-	-no-	.	.	4G-M	.	saxophone	.	206.235	G-:maj
8b-	-ther	.	.	.	.	.	.	.	.
=88	=88	=88	=88	=88	=88	=88	=88	=88	=88
*>Letter>C	*>Letter>C	*>Letter>C	*>Letter>C	*>Letter>C	*>Letter>C	*>Letter>C	*>Letter>C	*>Letter>C	*>Letter>C
*>Label>Chorus	*>Label>Chorus	*>Label>Chorus	*>Label>Chorus	*>Label>Chorus	*>Label>Chorus	*>Label>Chorus	*>Label>Chorus	*>Label>Chorus	*>Label>Chorus
8a-	he-	1r	.	2F-M	newline	voice	.	206.84	F-:maj
8g-	-ro!	.	.	.	.	.	C	.	.
4r	.	.	.	.	.	.	.	.	.
8a-	(He-	.	.	2G-M	.	voice	.	208.054	G-:maj
8g-	-ro)	.	.	.	.	.	.	.	.
4r	.	.	.	.	.	.	.	.	.
=89	=89	=89	=89	=89	=89	=89	=89	=89	=89
4r	.	1r	.	2G-M	.	voice	.	209.268	G-:maj
8b-	We	.	.	.	.	.	.	.	.
8b-	don't	.	.	.	.	.	.	.	.
8cc-	need	.	.	4F-M	.	voice	.	210.481	F-:maj/3
8cc-	to	.	.	.	.	.	.	.	.
8b-	know	.	.	4G-M	.	voice	.	211.088	G-:maj
8b-	the	.	.	.	.	.	.	.	.
=90	=90	=90	=90	=90	=90	=90	=90	=90	=90
4.cc-	way	1r	.	2F-M	.	voice	.	211.695	F-:maj
8b-	home!	.	.	.	.	.	C	.	.
16a-	_	.	.	2G-M	.	voice	.	212.909	G-:maj
8b-	_	.	.	.	.	.	.	.	.
16a-	_	.	.	.	.	.	.	.	.
4g-	_	.	.	.	.	.	.	.	.
=91	=91	=91	=91	=91	=91	=91	=91	=91	=91
4r	.	1r	.	2G-M	.	voice	.	214.122	G-:maj/6
8b-	All	.	.	.	.	.	.	.	.
8b-	we	.	.	.	.	.	.	.	.
8cc-	want	.	.	4C-M	.	voice	.	215.336	C-:maj/3
8cc-	is	.	.	.	.	.	.	.	.
8b-	life	.	.	4G-M	.	voice	.	215.943	G-:maj/6
8b-	be-	.	.	.	.	.	.	.	.
=92	=92	=92	=92	=92	=92	=92	=92	=92	=92
4.a-	-yond	1r	.	2F-M	newline	voice	.	216.55	F-:maj
8g-	_	.	.	.	.	.	.	.	.
4r	.	.	.	2G-M	.	voice	.	217.768	G-:maj
8a-	Thun-	.	.	.	.	.	.	.	.
8g-	-der-	.	.	.	.	.	.	.	.
=93	=93	=93	=93	=93	=93	=93	=93	=93	=93
16a-	-dome!	1r	.	1D-m	.	voice	C	218.985	D-:min
16g-	_	.	.	.	.	.	.	.	.
16a-	_	.	.	.	.	.	.	.	.
16g-	_	.	.	.	.	.	.	.	.
[4f-	_	.	.	.	.	.	.	.	.
2f-]	_	.	.	.	.	.	.	.	.
=94	=94	=94	=94	=94	=94	=94	=94	=94	=94
2r	.	1r	.	1D-m	.	voice	.	221.421	D-:min
8cc-	All	.	.	.	.	.	.	.	.
8cc-	the	.	.	.	.	.	.	.	.
8cc-	chil-	.	.	.	.	.	.	.	.
8cc-	-dren	.	.	.	.	.	.	.	.
=95	=95	=95	=95	=95	=95	=95	=95	=95	=95
4b-	say!	4r	.	2G-M	.	voice	.	223.857	G-:maj
4r	.	8b- 8dd-	We	.	.	.	.	.	.
.	.	8b- 8dd-	don't	.	.	.	.	.	.
2r	.	8cc- 8ff-	need	4F-M	.	voice	.	225.074	F-:maj/3
.	.	8cc- 8ff-	a-	.	.	.	.	.	.
.	.	8b- 8dd-	-no-	4G-M	.	voice	.	225.683	G-:maj
.	.	8b- 8dd-	-ther	.	.	.	.	.	.
=96	=96	=96	=96	=96	=96	=96	=96	=96	=96
*>Letter>C	*>Letter>C	*>Letter>C	*>Letter>C	*>Letter>C	*>Letter>C	*>Letter>C	*>Letter>C	*>Letter>C	*>Letter>C
*>Label>Chorus	*>Label>Chorus	*>Label>Chorus	*>Label>Chorus	*>Label>Chorus	*>Label>Chorus	*>Label>Chorus	*>Label>Chorus	*>Label>Chorus	*>Label>Chorus
2r	.	4.a- 4.cc-	he-	2F-M	newline	voice	.	226.292	F-:maj
.	.	[8g- [8b-	-ro!	.	.	.	C	.	.
12r	.	2g-] 2b-]	_	2G-M	.	voice	.	227.5	G-:maj
12b-	We	.	.	.	.	.	.	.	.
12a-	don't	.	.	.	.	.	.	.	.
12b-	need	.	.	.	.	.	.	.	.
12a-	a-	.	.	.	.	.	.	.	.
12b-	-no-	.	.	.	.	.	.	.	.
=97	=97	=97	=97	=97	=97	=97	=97	=97	=97
12a-	-ther	4r	.	2G-M	.	voice	.	228.708	G-:maj
12b-	he	.	.	.	.	.	.	.	.
12a-	_	.	.	.	.	.	.	.	.
4g-	ro!	8b- 8dd-	We	.	.	.	C	.	.
.	.	8b- 8dd-	don't	.	.	.	.	.	.
2r	.	8cc- 8ff-	need	4F-M	.	voice	.	229.916	F-:maj/3
.	.	8cc- 8ff-	to	.	.	.	.	.	.
.	.	8b- 8dd-	know	4G-M	.	voice	.	230.52	G-:maj
.	.	8b- 8dd-	the	.	.	.	.	.	.
=98	=98	=98	=98	=98	=98	=98	=98	=98	=98
2r	.	4.cc- 4.ff- 4.aa-	way	2F-M	.	voice	.	231.124	F-:maj
.	.	[8b- [8dd- [8gg-	home!	.	.	.	.	.	.
8r	.	2b-] 2dd-] 2gg-]	_	2G-M	.	voice	.	232.332	G-:maj
[4.b-	Mmm,	.	.	.	.	.	.	.	.
=99	=99	=99	=99	=99	=99	=99	=99	=99	=99
4b-]	_	4r	.	2G-M	.	voice	.	233.54	G-:maj/6
8b-	all	8b- 8dd-	All	.	.	.	.	.	.
8b-	we	8b- 8dd-	we	.	.	.	.	.	.
8cc-	want	8cc- 8ee-	want	4C-M	.	voice	.	234.748	C-:maj/3
8cc-	is	8cc- 8ee-	is	.	.	.	.	.	.
8b-	life	8b- 8dd-	life	4G-M	.	voice	.	235.352	G-:maj/6
8b-	be-	8b- 8dd-	be-	.	.	.	.	.	.
=100	=100	=100	=100	=100	=100	=100	=100	=100	=100
4.a-	-yond,	4.a- 4.cc-	-yond	2F-M	newline	voice	.	235.956	F-:maj
8g-	_	[8g- [8b-	_	.	.	.	.	.	.
8r	.	2g-] 2b-]	.	2G-M	.	voice	.	237.147	G-:maj
8G-	the	.	.	.	.	.	.	.	.
8d-	Thun-	.	.	.	.	.	.	.	.
8e-	-der-	.	.	.	.	.	.	.	.
=101	=101	=101	=101	=101	=101	=101	=101	=101	=101
4f-	-dome...	1r	.	1D-m	.	voice	C	238.338	D-:min
4r	.	.	.	.	.	.	.	.	.
2r	.	.	.	.	.	.	.	.	.
=102	=102	=102	=102	=102	=102	=102	=102	=102	=102
1r	.	1r	.	1D-m	.	voice	.	240.72	D-:min
=103	=103	=103	=103	=103	=103	=103	=103	=103	=103
*>Label>>Fadeout	*>Label>>Fadeout	*>Label>>Fadeout	*>Label>>Fadeout	*>Label>>Fadeout	*>Label>>Fadeout	*>Label>>Fadeout	*>Label>>Fadeout	*>Label>>Fadeout	*>Label>>Fadeout
1r	.	1r	.	1D-m	newline	synthesizer	.	243.101	D-:min
=104	=104	=104	=104	=104	=104	=104	=104	=104	=104
1r	.	1r	.	1D-m	.	synthesizer	.	245.595	D-:min
=105	=105	=105	=105	=105	=105	=105	=105	=105	=105
1r	.	1r	.	1D-m	.	synthesizer	.	248.088	D-:min
=106	=106	=106	=106	=106	=106	=106	=106	=106	=106
1r	.	1r	.	1D-m	.	synthesizer	.	250.581	D-:min
r;	.	r;	.	1r;	.	r	.	253.074	N.C.
r;	.	r;	.	1r;	.	r	.	255.504	N.C.
*-	*-	*-	*-	*-	*-	*-	*-	*-	*-
!!!BillboardChartDate: 1985/09/07
!!!BillboardPeak: 2
!!!BillboardWeeksOnChart: 18
!!!COC: Tina Turner
!!!ENC: Nathaniel Condit-Schultz
!!!EST: Awating manual error checking and editing.
!!!OTL: We Don't Need Another Hero (Thunderdome)
!!!RDF**chordsym: original McGill chord annotation + (implied pitch class set, with bass pitch in first position)
!!!RDF**harmony: **recip + pitch class of root + harmonic quality
!!!RDF**leadinstrument: original McGill primary instrumentation annotation
!!!RDF**phrase: newline = linebreak in original McGill transcription
!!!RDF**timestamp: McGill audio timestamp in seconds
!!!RDT: 2017/01/12/
!!!SampleActualRank: 3
!!!SampleID#: 1031
!!!SampleTargetRank: 1
